X: 283
T: Guo nian
L: 1/8
M: 2/4
K: Bb
c2c f [I:setbarnb 1]| 
d c B G | 
c2c f | 
d Bc2 | 
d d/ c/ d d/ c/ | 
B c B G | 
B B/ c/ B G | 
f DF2 | 
G> B c d/ c/ | 
B B/ c/ B G | 
F DF2 |]

@@@ Tune index: 9157
